flaticon/delivery/package-18.svg

<svg xmlns="http://www.w3.org/2000/svg" width="32" height="32" viewBox="0 0 24 24">
    <path d="M 22 0.800781 L 15.199219 0.800781 L 15.199219 0.398438 C 15.199219 0.160156 15.039062 0 14.800781 0 L 9.160156 0 C 8.921875 0 8.761719 0.160156 8.761719 0.398438 L 8.761719 0.800781 L 2 0.800781 C 0.878906 0.800781 0 1.679688 0 2.800781 L 0 22 C 0 23.121094 0.878906 24 2 24 L 22 24 C 23.121094 24 24 23.121094 24 22 L 24 2.800781 C 24 1.679688 23.121094 0.800781 22 0.800781 Z M 9.601562 0.800781 L 14.398438 0.800781 L 14.398438 5.921875 L 12.28125 4.078125 C 12.199219 4.039062 12.078125 4 12 4 C 11.921875 4 11.800781 4.039062 11.71875 4.078125 L 9.601562 5.921875 Z M 23.199219 22 C 23.199219 22.679688 22.679688 23.199219 22 23.199219 L 2 23.199219 C 1.320312 23.199219 0.800781 22.679688 0.800781 22 L 0.800781 2.800781 C 0.800781 2.121094 1.320312 1.601562 2 1.601562 L 8.761719 1.601562 L 8.761719 6.078125 C 8.761719 6.398438 8.921875 6.640625 9.199219 6.761719 C 9.480469 6.878906 9.761719 6.839844 10 6.640625 L 12 4.921875 L 14 6.640625 C 14.160156 6.71875 14.320312 6.800781 14.480469 6.800781 C 14.558594 6.800781 14.679688 6.800781 14.71875 6.761719 C 15 6.640625 15.160156 6.359375 15.160156 6.078125 L 15.160156 1.601562 L 22 1.601562 C 22.679688 1.601562 23.199219 2.121094 23.199219 2.800781 Z M 23.199219 22"/>
    <path d="M 16.800781 12.421875 L 16.800781 9.199219 C 16.800781 8.960938 16.640625 8.800781 16.398438 8.800781 L 8.800781 8.800781 C 8.558594 8.800781 8.398438 8.960938 8.398438 9.199219 L 8.398438 11.199219 L 4.800781 11.199219 C 4.558594 11.199219 4.398438 11.359375 4.398438 11.601562 L 4.398438 17.601562 C 4.398438 17.839844 4.558594 18 4.800781 18 L 6.859375 18 C 6.90625 18.152344 6.980469 18.300781 7.078125 18.441406 L 9.398438 21.679688 C 9.71875 22.121094 10.199219 22.359375 10.71875 22.359375 C 11.039062 22.359375 11.359375 22.28125 11.640625 22.121094 L 14.878906 19.800781 C 15.019531 19.683594 15.144531 19.554688 15.246094 19.414062 C 15.609375 19.535156 15.996094 19.601562 16.398438 19.601562 C 18.398438 19.601562 20 18 20 16 C 20 14.136719 18.609375 12.617188 16.800781 12.421875 Z M 9.199219 9.601562 L 16.039062 9.601562 L 16.039062 12.417969 C 14.738281 12.542969 13.652344 13.351562 13.128906 14.484375 L 13 14.320312 C 12.941406 14.238281 12.878906 14.167969 12.808594 14.101562 C 12.261719 13.53125 11.375 13.40625 10.71875 13.878906 L 9.199219 14.96875 Z M 5.199219 12 L 8.398438 12 L 8.398438 15.542969 L 7.480469 16.199219 C 7.132812 16.449219 6.90625 16.8125 6.824219 17.199219 L 5.199219 17.199219 Z M 14.519531 19.078125 C 14.480469 19.078125 14.480469 19.121094 14.441406 19.121094 L 11.199219 21.441406 C 10.839844 21.679688 10.320312 21.601562 10.078125 21.238281 L 7.761719 18 C 7.691406 17.894531 7.648438 17.777344 7.632812 17.65625 C 7.636719 17.625 7.640625 17.589844 7.640625 17.558594 C 7.632812 17.503906 7.628906 17.449219 7.636719 17.398438 C 7.667969 17.191406 7.78125 17 7.960938 16.878906 L 11.199219 14.558594 C 11.558594 14.320312 12.078125 14.398438 12.320312 14.761719 L 12.832031 15.476562 C 12.800781 15.660156 12.800781 15.8125 12.800781 16 C 12.800781 16.050781 12.800781 16.101562 12.804688 16.152344 C 12.804688 16.175781 12.804688 16.199219 12.808594 16.226562 C 12.808594 16.230469 12.808594 16.238281 12.808594 16.246094 C 12.886719 17.410156 13.507812 18.414062 14.421875 19.015625 C 14.453125 19.035156 14.488281 19.058594 14.519531 19.078125 Z M 16.398438 18.800781 C 15.035156 18.800781 13.917969 17.851562 13.65625 16.574219 C 13.65625 16.570312 13.65625 16.566406 13.65625 16.5625 C 13.648438 16.519531 13.640625 16.480469 13.632812 16.4375 C 13.632812 16.433594 13.632812 16.429688 13.632812 16.425781 C 13.625 16.382812 13.621094 16.339844 13.617188 16.296875 C 13.613281 16.289062 13.613281 16.277344 13.613281 16.269531 C 13.609375 16.234375 13.605469 16.199219 13.605469 16.167969 C 13.605469 16.152344 13.605469 16.140625 13.601562 16.128906 C 13.601562 16.085938 13.601562 16.042969 13.601562 16 C 13.601562 15.570312 13.695312 15.167969 13.863281 14.804688 C 14.3125 13.894531 15.234375 13.253906 16.269531 13.203125 C 16.3125 13.203125 16.355469 13.199219 16.398438 13.199219 C 17.960938 13.199219 19.199219 14.441406 19.199219 16 C 19.199219 17.558594 17.960938 18.800781 16.398438 18.800781 Z M 16.398438 18.800781"/>
</svg>

<svg xmlns="http://www.w3.org/2000/svg" width="32" height="32" viewBox="0 0 24 24">
    <path d="M22 .8h-6.8V.399C15.2.16 15.04 0 14.8 0H9.16c-.238 0-.398.16-.398.398v.403H2c-1.121 0-2 .879-2 2V22c0 1.121.879 2 2 2h20c1.121 0 2-.879 2-2V2.8c0-1.12-.879-2-2-2zM9.602.8h4.796v5.122l-2.117-1.844A.782.782 0 0 0 12 4c-.078 0-.2.04-.281.078L9.602 5.922zM23.199 22c0 .68-.52 1.2-1.199 1.2H2c-.68 0-1.2-.52-1.2-1.2V2.8c0-.679.52-1.198 1.2-1.198h6.762v4.476c0 .32.16.563.437.684A.745.745 0 0 0 10 6.64l2-1.72 2 1.72c.16.078.32.16.48.16.079 0 .2 0 .239-.04a.743.743 0 0 0 .441-.683V1.602H22c.68 0 1.2.52 1.2 1.199zm0 0"/>
    <path d="M16.8 12.422V9.199c0-.238-.16-.398-.402-.398H8.801c-.242 0-.403.16-.403.398v2H4.801c-.242 0-.403.16-.403.403v6c0 .238.16.398.403.398h2.058c.047.152.121.3.22.441l2.32 3.239c.32.441.8.68 1.32.68.32 0 .64-.079.922-.239l3.238-2.32a2.14 2.14 0 0 0 .367-.387c.363.121.75.188 1.152.188C18.398 19.602 20 18 20 16a3.583 3.583 0 0 0-3.2-3.578zm-7.6-2.82h6.84v2.816a3.577 3.577 0 0 0-2.911 2.066L13 14.32a1.477 1.477 0 0 0-.191-.218c-.547-.57-1.434-.696-2.09-.223l-1.52 1.09zM5.2 12h3.198v3.543l-.918.656a1.66 1.66 0 0 0-.656 1H5.2zm9.32 7.078c-.04 0-.04.043-.079.043l-3.242 2.32c-.36.239-.879.16-1.12-.203L7.761 18a.803.803 0 0 1-.13-.344.822.822 0 0 0 .009-.097.554.554 0 0 1-.004-.16.761.761 0 0 1 .324-.52l3.238-2.32c.36-.239.88-.16 1.121.203l.512.715c-.031.183-.031.335-.031.523 0 .05 0 .102.004.152 0 .024 0 .047.004.075v.02a3.594 3.594 0 0 0 1.613 2.769c.031.02.066.043.098.062zm1.878-.277c-1.363 0-2.48-.95-2.742-2.227v-.012l-.023-.125v-.011a1.45 1.45 0 0 1-.016-.13c-.004-.007-.004-.019-.004-.026a.962.962 0 0 1-.008-.102c0-.016 0-.027-.003-.04V16c0-.43.093-.832.261-1.195.45-.91 1.371-1.551 2.407-1.602.043 0 .085-.004.128-.004 1.563 0 2.801 1.242 2.801 2.801 0 1.559-1.238 2.8-2.8 2.8zm0 0"/>
</svg>
